icon/pk/cardioelectric.svg

<svg viewBox="0 0 48 48" fill="none" xmlns="http://www.w3.org/2000/svg" height="1em" width="1em">
  <path d="M5.55469 23.194C5.3698 22.8031 5.19795 22.4068 5.04108 22.0056C4.39264 20.3473 4 18.6042 4 16.8C4 10.8353 8.88417 6 14.9091 6C18.7036 6 22.0456 7.91792 24 10.828C25.9544 7.91792 29.2964 6 33.0909 6C39.1158 6 44 10.8353 44 16.8C44 24.5647 36.7273 31.2 33.0909 34.8C30.6667 37.2 27.6364 39.6 24 42C20.3636 39.6 17.3333 37.2 14.9091 34.8C14.543 34.4376 14.1401 34.0444 13.7114 33.6224" stroke="black" stroke-width="4" stroke-linecap="round" stroke-linejoin="round"/>
  <path d="M8 29.9734L19.1138 19.0396L25.5781 25.7059L35.2619 15.8188" stroke="black" stroke-width="4" stroke-linecap="round" stroke-linejoin="round"/>
</svg>

<svg width="48" height="48" fill="none" xmlns="http://www.w3.org/2000/svg"><path d="M5.555 23.194a18.75 18.75 0 0 1-.514-1.188C4.393 20.347 4 18.604 4 16.8 4 10.835 8.884 6 14.91 6c3.794 0 7.136 1.918 9.09 4.828A10.928 10.928 0 0 1 33.09 6C39.117 6 44 10.835 44 16.8c0 7.765-7.273 14.4-10.91 18-2.423 2.4-5.454 4.8-9.09 7.2-3.636-2.4-6.667-4.8-9.09-7.2-.367-.362-.77-.756-1.199-1.178" stroke="#000" stroke-width="4" stroke-linecap="round" stroke-linejoin="round"/><path d="M8 29.973 19.114 19.04l6.464 6.666 9.684-9.887" stroke="#000" stroke-width="4" stroke-linecap="round" stroke-linejoin="round"/></svg>
